X: 17262
T: Herd On The Hill, The
R: polka
M: 2/4
K: Gmajor
|:Bc|dG BA/G/ dG g>e|dG dc/B/ cA AB/c/|
dG BA/G/ dG g>B|cA d/e/d/c/ BG G:|
|:Bc|dg Bg dg GA/B/|cf Af cf AB/c/|
dg Bg dg GA/B/|cA d/e/d/c/ BG G:|

